images/milestone_3.svg

<?xml version="1.0" encoding="utf-8"?>
<!-- Generator: Adobe Illustrator 16.0.0, SVG Export Plug-In . SVG Version: 6.00 Build 0)  -->
<!DOCTYPE svg PUBLIC "-//W3C//DTD SVG 1.1//EN" "http://www.w3.org/Graphics/SVG/1.1/DTD/svg11.dtd">
<svg version="1.1" id="Layer_1" xmlns="http://www.w3.org/2000/svg" xmlns:xlink="http://www.w3.org/1999/xlink" x="0px" y="0px"
	 width="76px" height="48px" viewBox="0 0 76 48" enable-background="new 0 0 76 48" xml:space="preserve">
<g>
	<g>
		<path fill="#F47752" d="M74.316,14.389H40.82V8.812h0.809c0.929,0,1.682-0.753,1.682-1.683V1.683C43.311,0.753,42.558,0,41.629,0
			H1.683C0.753,0,0,0.753,0,1.683v5.446c0,0.93,0.753,1.683,1.683,1.683h0.809v36.046c0,0.93,0.753,1.683,1.683,1.683h34.963
			c0.93,0,1.684-0.753,1.684-1.683V23.202h27.049v21.657c0,0.93,0.753,1.683,1.682,1.683c0.931,0,1.684-0.753,1.684-1.683V23.202
			h3.082c0.93,0,1.684-0.753,1.684-1.684v-5.446C76,15.143,75.246,14.389,74.316,14.389z M72.635,19.835H40.82v-2.08h31.814V19.835z
			 M3.366,5.446V3.366h36.579v2.081h-0.808H4.174H3.366z M5.856,8.812h31.598v7.26v5.446v21.658h-9.926V31.356
			c0-0.929-0.753-1.683-1.683-1.683h-8.38c-0.93,0-1.683,0.754-1.683,1.683v11.819H5.856V8.812z M24.163,43.176h-5.015V33.04h5.015
			V43.176z"/>
		<path fill="#F47752" d="M63.419,33.854v-3.282c0-2.255-1.834-4.089-4.088-4.089h-9.575c-2.254,0-4.089,1.834-4.089,4.089v3.282
			c-1.396,0.509-2.398,1.846-2.398,3.417v6.681c0,0.93,0.754,1.683,1.684,1.683h0.964v0.31c0,0.929,0.753,1.683,1.683,1.683
			s1.684-0.754,1.684-1.683v-0.31h10.522v0.31c0,0.929,0.754,1.683,1.684,1.683s1.684-0.754,1.684-1.683v-0.31h0.964
			c0.93,0,1.683-0.753,1.683-1.683v-6.681C65.817,35.699,64.815,34.362,63.419,33.854z M46.634,42.268v-4.997
			c0-0.15,0.123-0.273,0.273-0.273H62.18c0.149,0,0.272,0.123,0.272,0.273v4.997H46.634z M49.756,29.849h9.575
			c0.397,0,0.723,0.324,0.723,0.723v3.061h-11.02v-3.061C49.034,30.173,49.357,29.849,49.756,29.849L49.756,29.849z"/>
		<path fill="#F47752" d="M49.148,38.701c-0.442,0-0.875,0.177-1.189,0.492c-0.313,0.313-0.493,0.748-0.493,1.189
			c0,0.442,0.18,0.876,0.493,1.191c0.314,0.312,0.747,0.492,1.189,0.492c0.445,0,0.877-0.181,1.19-0.492
			c0.313-0.313,0.493-0.749,0.493-1.191c0-0.443-0.181-0.877-0.493-1.189C50.025,38.878,49.594,38.701,49.148,38.701z"/>
		<path fill="#F47752" d="M59.936,38.701c-0.442,0-0.875,0.177-1.189,0.492c-0.313,0.313-0.492,0.746-0.492,1.189
			c0,0.442,0.18,0.876,0.492,1.191c0.315,0.312,0.747,0.492,1.189,0.492c0.443,0,0.879-0.181,1.19-0.492
			c0.313-0.315,0.493-0.749,0.493-1.191c0-0.443-0.181-0.877-0.493-1.189C60.814,38.878,60.381,38.701,59.936,38.701L59.936,38.701z
			"/>
		<path fill="#F47752" d="M13.477,13.725c-0.929,0-1.683,0.754-1.683,1.683v3.549c0,0.93,0.754,1.684,1.683,1.684
			s1.683-0.753,1.683-1.684v-3.549C15.16,14.479,14.406,13.725,13.477,13.725z"/>
		<path fill="#F47752" d="M21.655,20.641c0.93,0,1.684-0.753,1.684-1.684v-3.549c0-0.929-0.754-1.683-1.684-1.683
			c-0.929,0-1.683,0.754-1.683,1.683v3.549C19.973,19.887,20.726,20.641,21.655,20.641z"/>
		<path fill="#F47752" d="M29.834,20.641c0.929,0,1.683-0.753,1.683-1.684v-3.549c0-0.929-0.753-1.683-1.683-1.683
			s-1.683,0.754-1.683,1.683v3.549C28.151,19.887,28.905,20.641,29.834,20.641z"/>
	</g>
</g>
</svg>

<svg id="milestone_3" xmlns="http://www.w3.org/2000/svg" width="76.003" height="47.628" viewBox="0 0 76.003 47.628">
  <g id="Group_1" data-name="Group 1">
    <path id="Path_1" data-name="Path 1" d="M74.316,14.389H40.82V8.812h.809a1.682,1.682,0,0,0,1.682-1.683V1.683A1.682,1.682,0,0,0,41.629,0H1.683A1.682,1.682,0,0,0,0,1.683V7.129A1.682,1.682,0,0,0,1.683,8.812h.809V44.858a1.682,1.682,0,0,0,1.683,1.683H39.138a1.683,1.683,0,0,0,1.684-1.683V23.2H67.871V44.859a1.683,1.683,0,1,0,3.366,0V23.2h3.082A1.683,1.683,0,0,0,76,21.518V16.072A1.688,1.688,0,0,0,74.316,14.389Zm-1.681,5.446H40.82v-2.08H72.634v2.08ZM3.366,5.446V3.366H39.945V5.447H3.366Zm2.49,3.366h31.6V43.176H27.528V31.356a1.683,1.683,0,0,0-1.683-1.683h-8.38a1.683,1.683,0,0,0-1.683,1.683V43.175H5.856ZM24.163,43.176H19.148V33.04h5.015Z" fill="#d3ae29"/>
    <path id="Path_2" data-name="Path 2" d="M63.419,33.854V30.572a4.093,4.093,0,0,0-4.088-4.089H49.756a4.094,4.094,0,0,0-4.089,4.089v3.282a3.642,3.642,0,0,0-2.4,3.417v6.681a1.683,1.683,0,0,0,1.684,1.683h.964v.31a1.684,1.684,0,0,0,3.367,0v-.31H59.806v.31a1.684,1.684,0,0,0,3.368,0v-.31h.964a1.682,1.682,0,0,0,1.683-1.683V37.271A3.649,3.649,0,0,0,63.419,33.854ZM46.634,42.268v-5A.274.274,0,0,1,46.907,37H62.18a.274.274,0,0,1,.272.273v5Zm3.122-12.419h9.575a.725.725,0,0,1,.723.723v3.061H49.034V30.572a.723.723,0,0,1,.722-.723Z" fill="#d3ae29"/>
    <path id="Path_3" data-name="Path 3" d="M49.148,38.7a1.681,1.681,0,1,0,1.19.492A1.687,1.687,0,0,0,49.148,38.7Z" fill="#d3ae29"/>
    <path id="Path_4" data-name="Path 4" d="M59.936,38.7a1.68,1.68,0,0,0-1.681,1.681,1.682,1.682,0,1,0,2.871-1.189,1.681,1.681,0,0,0-1.19-.492Z" fill="#d3ae29"/>
    <path id="Path_5" data-name="Path 5" d="M13.477,13.725a1.684,1.684,0,0,0-1.683,1.683v3.549a1.683,1.683,0,1,0,3.366,0V15.408A1.684,1.684,0,0,0,13.477,13.725Z" fill="#d3ae29"/>
    <path id="Path_6" data-name="Path 6" d="M21.655,20.641a1.683,1.683,0,0,0,1.684-1.684V15.408a1.684,1.684,0,0,0-3.367,0v3.549A1.684,1.684,0,0,0,21.655,20.641Z" fill="#d3ae29"/>
    <path id="Path_7" data-name="Path 7" d="M29.834,20.641a1.683,1.683,0,0,0,1.683-1.684V15.408a1.683,1.683,0,0,0-3.366,0v3.549A1.684,1.684,0,0,0,29.834,20.641Z" fill="#d3ae29"/>
  </g>
</svg>
